X: 1
T: "GEORGIA CRACKERS" -- HORNPIPE
C: FRANK LIVINGSTON
B: Ryan's Mammoth Collection of Fiddle Tunes
R: hornpipe
M: 2/4
L: 1/16
Z: Contributed 20000425171336 by John Chambers jchambers:casc.com
K: F
((3ucde) \
| fcAc fcAc | fefg agfe | fcAc fcAc | egec egec |
| fcAc fcAc | fefg afga | bagf gfed | cbag f2 :|
|: vba \
| gfed cBAG | FCA,C FAcf | ecbg ecbg | fc"4"c'"3"a fcba |
| gfed cBAG | FCA,C FAcf | ecbg ecBG | F2A2F2 :|
